packages/sources/icons/src/vitamix/twitter-fill.svg

<svg width="16" height="16" viewBox="0 0 16 16" fill="none" xmlns="http://www.w3.org/2000/svg">
<path d="M14.7747 3.77065C14.2657 3.99578 13.726 4.14363 13.1733 4.20932C13.7558 3.86094 14.1918 3.31266 14.4 2.66665C13.8533 2.99198 13.254 3.21998 12.6293 3.34332C11.7666 2.4202 10.3908 2.19271 9.27683 2.78895C8.16283 3.3852 7.58907 4.65608 7.87866 5.88598C5.63667 5.77361 3.54782 4.71465 2.13199 2.97265C1.88418 3.39828 1.75396 3.88214 1.75466 4.37465C1.75466 5.34132 2.24666 6.19532 2.99466 6.69532C2.552 6.68138 2.11908 6.56184 1.73199 6.34665V6.38132C1.73226 7.70867 2.66767 8.85207 3.96866 9.11532C3.55773 9.22668 3.12686 9.24309 2.70866 9.16332C3.07341 10.2994 4.12029 11.0778 5.31332 11.1C4.14528 12.0173 2.66048 12.4327 1.18599 12.2547C2.46045 13.0743 3.94405 13.5094 5.45932 13.508C10.588 13.508 13.3927 9.25932 13.3927 5.57465C13.3927 5.45465 13.3893 5.33332 13.384 5.21465C13.9299 4.8201 14.4011 4.33133 14.7753 3.77132L14.7747 3.77065Z" fill="#001018"/>
</svg>

<svg width="16" height="16" fill="none" xmlns="http://www.w3.org/2000/svg"><path d="M14.775 3.77a5.59 5.59 0 0 1-1.602.44A2.797 2.797 0 0 0 14.4 2.666a5.572 5.572 0 0 1-1.77.676 2.788 2.788 0 0 0-4.751 2.543 7.916 7.916 0 0 1-5.747-2.913 2.788 2.788 0 0 0 .863 3.723 2.779 2.779 0 0 1-1.263-.35v.035a2.79 2.79 0 0 0 2.237 2.734 2.794 2.794 0 0 1-1.26.048A2.79 2.79 0 0 0 5.313 11.1a5.597 5.597 0 0 1-4.127 1.155 7.887 7.887 0 0 0 4.273 1.253c5.129 0 7.934-4.249 7.934-7.933 0-.12-.004-.242-.009-.36a5.663 5.663 0 0 0 1.391-1.444z" fill="#001018"/></svg>
